public/logo.svg

<svg width="122" height="18" viewBox="0 0 122 18" fill="none" xmlns="http://www.w3.org/2000/svg">
<path d="M6.71505 0.0351009C3.79014 0.316009 1.28536 2.12915 0.373072 4.62814C-0.331148 6.55437 -0.0270529 8.70313 1.18933 10.3922C2.34569 11.9938 4.12624 13.0481 6.25091 13.3874C6.90311 13.4895 7.97544 13.5005 8.63965 13.4056C9.48391 13.2852 10.4602 12.9897 11.1604 12.6395L11.4165 12.5082L11.9207 12.7416C14.0854 13.7267 16.6141 13.7267 18.7788 12.7344C20.8195 11.8004 22.2679 10.0675 22.724 8.01363C22.8041 7.65246 22.8161 7.49559 22.8161 6.74407C22.8161 5.99255 22.8041 5.83568 22.724 5.47451C22.2599 3.38046 20.7954 1.64759 18.6948 0.706362C16.5581 -0.253105 13.9493 -0.22392 11.8447 0.775677L11.4325 0.972678L10.9364 0.746491C9.65197 0.15549 8.1435 -0.0998812 6.71505 0.0351009ZM8.02746 2.07442C8.4636 2.1182 9.07979 2.24589 9.35187 2.35533L9.51993 2.421L7.12718 4.56977C5.80677 5.74812 4.73043 6.72583 4.73043 6.74042C4.73043 6.75137 5.80677 7.72907 7.12318 8.91473L9.51993 11.0635L9.34387 11.1328C9.05978 11.2423 8.39958 11.3736 7.94343 11.4101C6.96313 11.4867 6.01483 11.3189 5.11855 10.9066C3.6781 10.2427 2.72181 9.09713 2.36569 7.60139C2.28167 7.23657 2.26966 6.36831 2.34569 5.97796C2.7058 4.12104 4.20227 2.66542 6.2269 2.19846C6.8591 2.05253 7.38726 2.01605 8.02746 2.07442ZM16.194 2.11455C17.1303 2.24953 18.1106 2.67272 18.8068 3.23819C19.9512 4.16482 20.5554 5.37236 20.5554 6.74407C20.5554 7.6853 20.2833 8.52073 19.7151 9.31602C19.455 9.67719 18.7188 10.3521 18.3147 10.6002C17.7065 10.9723 16.9703 11.2423 16.254 11.359C15.6979 11.4502 14.8456 11.4393 14.2734 11.3262C13.7933 11.235 13.3411 11.1 13.3611 11.0525C13.3691 11.0343 14.4415 10.0675 15.7459 8.89649C17.0463 7.72907 18.1146 6.76231 18.1146 6.74772C18.1146 6.73313 17.6345 6.28805 17.0463 5.75907C16.4541 5.22643 15.3778 4.25602 14.6495 3.59571L13.3251 2.40276L13.6892 2.29696C14.0533 2.19116 14.5735 2.08902 14.9136 2.05983C15.1697 2.03794 15.8899 2.06713 16.194 2.11455ZM13.1731 5.1936L14.8936 6.74407L13.1731 8.29089C12.2288 9.14456 11.4405 9.84136 11.4285 9.84501C11.4165 9.84501 10.6283 9.14456 9.67998 8.28359L7.95144 6.72583L9.67998 5.18266C10.6283 4.33628 11.4125 3.64313 11.4285 3.64313C11.4405 3.64313 12.2288 4.34358 13.1731 5.1936Z" fill="white"/>
<path d="M34.6623 13.7457C30.6186 13.7457 28.2878 11.0424 28.2878 7.0982C28.2878 3.15401 30.6186 0.450684 34.6623 0.450684C37.77 0.450684 39.8573 2.05495 40.653 4.57214L38.6686 5.07735C38.135 3.29582 36.7965 2.21449 34.6623 2.21449C31.798 2.21449 30.3659 4.17329 30.3565 7.0982C30.3378 10.0231 31.798 11.9819 34.6623 11.9819C36.7965 11.9819 38.135 10.9006 38.6686 9.11905L40.653 9.62426C39.8573 12.1414 37.77 13.7457 34.6623 13.7457Z" fill="white"/>
<path d="M49.2453 8.77337C49.2453 7.28433 48.8428 5.4053 46.6899 5.4053C45.2858 5.4053 44.1251 6.22959 44.1251 8.49861V13.4798H42.1407V0.716584H43.8911V5.05077C44.6306 4.17329 45.7632 3.65035 47.2328 3.65035C50.7149 3.65035 51.2297 6.68162 51.2297 8.1618V13.4798H49.2453V8.77337Z" fill="white"/>
<path d="M55.9611 13.7457C53.724 13.7457 52.5445 12.4339 52.5445 10.874C52.5445 9.42926 53.3683 8.50747 54.9315 8.03772C56.1015 7.70977 57.7677 7.50591 59.4058 7.29319C59.3402 5.97255 58.7037 5.35212 57.1218 5.35212C56.0547 5.35212 55.0812 5.79529 54.7349 6.85889L52.9096 6.32709C53.3963 4.68737 54.8004 3.64149 57.1405 3.64149C58.9471 3.64149 60.3512 4.20875 60.9783 5.46734C61.2966 6.09664 61.334 6.78798 61.334 7.58568V13.4798H59.6023V12.0883C58.7692 13.2139 57.5992 13.7457 55.9611 13.7457ZM54.4822 10.8563C54.4822 11.6008 55.0531 12.2301 56.3074 12.2301C57.9736 12.2301 58.9565 11.264 59.1811 10.3333C59.3402 9.89016 59.3777 9.27859 59.387 8.83542C57.8613 9.04814 56.7287 9.19882 55.8769 9.43813C55.0719 9.69516 54.4822 10.1029 54.4822 10.8563Z" fill="white"/>
<path d="M63.3902 2.33858V0.539317H65.3466V2.33858H63.3902ZM63.3902 13.4798V3.90739H65.3466V13.4798H63.3902Z" fill="white"/>
<path d="M74.6911 8.77337C74.6911 7.28433 74.2886 5.4053 72.1357 5.4053C70.7316 5.4053 69.5709 6.22959 69.5709 8.49861V13.4798H67.5865V3.90739H69.3369V5.05077C70.0764 4.17329 71.209 3.65035 72.6786 3.65035C76.1607 3.65035 76.6755 6.68162 76.6755 8.1618V13.4798H74.6911V8.77337Z" fill="white"/>
<path d="M83.4381 13.7457C80.527 13.7457 78.3647 12.2478 77.9248 9.81925L79.9654 9.52676C80.3772 11.0956 81.8 11.9996 83.5504 11.9996C85.1698 11.9996 86.5645 11.2374 86.5645 9.96106C86.5645 9.03928 85.8625 8.56952 84.8702 8.28589L81.4163 7.31978C80.0683 6.94752 78.449 6.18527 78.449 4.12011C78.449 1.7536 80.5644 0.450684 83.279 0.459546C86.0122 0.486137 87.9592 1.85109 88.5115 4.19988L86.4147 4.53669C86.1245 3.09196 84.7954 2.23222 83.2509 2.21449C81.7439 2.1879 80.5176 2.94129 80.5176 4.03148C80.5176 5.09508 81.6596 5.47621 82.6144 5.72438L85.1043 6.38913C86.3492 6.71708 88.6051 7.34637 88.6051 9.83698C88.6051 12.4074 86.2182 13.7457 83.4381 13.7457Z" fill="white"/>
<path d="M90.2254 2.33858V0.539317H92.1818V2.33858H90.2254ZM90.2254 13.4798V3.90739H92.1818V13.4798H90.2254Z" fill="white"/>
<path d="M98.5965 18.0001C96.9677 18.0001 95.4139 17.2733 94.5902 15.9084L96.3968 15.0398C96.8367 15.8552 97.7166 16.2186 98.6152 16.2186C100.281 16.2186 101.255 15.3677 101.227 13.7191V12.8151C100.515 13.4089 99.5887 13.7457 98.4467 13.7457C95.6292 13.7457 93.8694 11.5565 93.8694 8.68474C93.8694 5.79529 95.6386 3.64149 98.4841 3.64149C99.7384 3.64149 100.74 4.05807 101.461 4.76714V3.90739H103.192V13.7369C103.192 14.2509 103.164 14.703 103.061 15.155C102.64 17.0961 100.955 18.0001 98.5965 18.0001ZM95.9475 8.68474C95.9475 10.5815 96.8367 12.0705 98.7181 12.0705C100.646 12.0705 101.461 10.6701 101.461 8.68474C101.461 6.69935 100.628 5.31667 98.7837 5.31667C96.8367 5.31667 95.9475 6.80571 95.9475 8.68474Z" fill="white"/>
<path d="M112.354 8.77337C112.354 7.28433 111.952 5.4053 109.799 5.4053C108.395 5.4053 107.234 6.22959 107.234 8.49861V13.4798H105.25V0.716584H107V5.05077C107.74 4.17329 108.872 3.65035 110.342 3.65035C113.824 3.65035 114.339 6.68162 114.339 8.1618V13.4798H112.354V8.77337Z" fill="white"/>
<path d="M122 13.4798C120.1 13.8343 118.144 13.6482 117.404 12.3187C116.964 11.5299 117.03 10.7588 117.03 9.71289V5.39644H115.092V3.90739H117.03V1.24838H118.995V3.90739H122V5.39644H118.995V9.62426C118.995 10.3954 118.958 10.9538 119.201 11.3437C119.651 12.0705 120.68 12.0971 122 11.911V13.4798Z" fill="white"/>
</svg>

<svg xmlns="http://www.w3.org/2000/svg" width="122" height="18" fill="none"><path fill="#fff" d="M6.715.035C3.79.316 1.285 2.13.373 4.628c-.704 1.926-.4 4.075.816 5.764 1.157 1.602 2.937 2.656 5.062 2.995.652.102 1.724.114 2.389.019.844-.12 1.82-.416 2.52-.767l.256-.13.505.233a8.3 8.3 0 0 0 6.858-.008c2.04-.934 3.489-2.666 3.945-4.72.08-.362.092-.518.092-1.27 0-.751-.012-.908-.092-1.27-.464-2.094-1.929-3.826-4.03-4.768-2.136-.96-4.745-.93-6.85.07l-.412.197-.496-.227a8.4 8.4 0 0 0-4.221-.71m1.312 2.04c.437.043 1.053.17 1.325.28l.168.066L7.127 4.57C5.807 5.748 4.73 6.726 4.73 6.74c0 .011 1.077.99 2.393 2.175l2.397 2.149-.176.069c-.284.11-.944.24-1.4.277a5.6 5.6 0 0 1-2.825-.503c-1.44-.664-2.397-1.81-2.753-3.306-.084-.364-.096-1.233-.02-1.623.36-1.857 1.856-3.313 3.88-3.78a5.4 5.4 0 0 1 1.801-.124m8.167.04c.936.135 1.917.558 2.613 1.123 1.144.927 1.748 2.134 1.748 3.506 0 .941-.272 1.777-.84 2.572-.26.361-.996 1.036-1.4 1.284a5.9 5.9 0 0 1-2.061.759 6.5 6.5 0 0 1-1.98-.033c-.48-.091-.933-.226-.913-.274.008-.018 1.08-.984 2.385-2.156 1.3-1.167 2.369-2.134 2.369-2.148s-.48-.46-1.069-.989a968 968 0 0 1-2.396-2.163l-1.325-1.193.364-.106a7.4 7.4 0 0 1 1.225-.237c.256-.022.976.007 1.28.055m-3.02 3.079 1.72 1.55-1.72 1.547c-.945.854-1.733 1.55-1.745 1.554-.013 0-.8-.7-1.749-1.561L7.951 6.726 9.68 5.183c.948-.847 1.733-1.54 1.749-1.54.011 0 .8.7 1.744 1.55m21.489 8.553c-4.043 0-6.374-2.704-6.374-6.648S30.618.451 34.662.451c3.108 0 5.195 1.604 5.991 4.121l-1.984.505c-.534-1.781-1.872-2.863-4.007-2.863-2.864 0-4.296 1.96-4.305 4.884-.02 2.925 1.441 4.884 4.305 4.884 2.135 0 3.473-1.081 4.007-2.863l1.984.505c-.796 2.517-2.883 4.122-5.99 4.122m14.582-4.973c0-1.489-.402-3.368-2.555-3.368-1.404 0-2.565.825-2.565 3.094v4.98h-1.984V.718h1.75V5.05c.74-.878 1.872-1.4 3.342-1.4 3.482 0 3.997 3.03 3.997 4.51v5.319h-1.985zm6.716 4.973c-2.237 0-3.416-1.312-3.416-2.872 0-1.445.823-2.367 2.386-2.836 1.17-.328 2.837-.532 4.475-.745-.066-1.32-.702-1.94-2.284-1.94-1.067 0-2.04.442-2.387 1.506l-1.825-.532c.486-1.64 1.89-2.686 4.23-2.686 1.807 0 3.211.568 3.838 1.826.319.63.356 1.321.356 2.119v5.894h-1.732v-1.392c-.833 1.126-2.003 1.658-3.64 1.658m-1.479-2.89c0 .745.571 1.374 1.825 1.374 1.667 0 2.65-.966 2.874-1.897.16-.443.197-1.054.206-1.498-1.526.213-2.658.364-3.51.603-.805.257-1.395.665-1.395 1.418m8.907-8.517v-1.8h1.957v1.8zm0 11.14V3.908h1.957v9.573zm11.301-4.706c0-1.489-.402-3.368-2.555-3.368-1.404 0-2.565.825-2.565 3.094v4.98h-1.984V3.908h1.75v1.144c.74-.878 1.872-1.4 3.342-1.4 3.482 0 3.996 3.03 3.996 4.51v5.319h-1.984zm8.747 4.973c-2.911 0-5.073-1.498-5.513-3.927l2.04-.292C80.377 11.096 81.8 12 83.55 12c1.62 0 3.014-.763 3.014-2.039 0-.922-.701-1.391-1.694-1.675l-3.454-.966c-1.348-.372-2.967-1.135-2.967-3.2 0-2.366 2.115-3.67 4.83-3.66 2.733.026 4.68 1.391 5.233 3.74l-2.097.337c-.29-1.445-1.62-2.305-3.164-2.323-1.507-.026-2.733.727-2.733 1.817 0 1.064 1.142 1.445 2.096 1.693l2.49.665c1.245.328 3.501.957 3.501 3.448 0 2.57-2.387 3.909-5.167 3.909m6.787-11.407v-1.8h1.957v1.8zm0 11.14V3.908h1.957v9.573zM98.597 18c-1.63 0-3.183-.727-4.007-2.092l1.807-.868c.44.815 1.32 1.179 2.218 1.179 1.666 0 2.64-.851 2.612-2.5v-.904c-.712.594-1.638.93-2.78.93-2.818 0-4.578-2.188-4.578-5.06 0-2.89 1.77-5.044 4.615-5.044 1.254 0 2.256.417 2.977 1.126v-.86h1.731v9.83c0 .514-.028.966-.131 1.418-.421 1.941-2.106 2.845-4.465 2.845m-2.65-9.315c0 1.896.89 3.385 2.771 3.385 1.928 0 2.743-1.4 2.743-3.385 0-1.986-.833-3.368-2.677-3.368-1.947 0-2.837 1.489-2.837 3.368m16.408.088c0-1.489-.402-3.368-2.555-3.368-1.404 0-2.565.825-2.565 3.094v4.98h-1.984V.718H107V5.05c.74-.878 1.872-1.4 3.342-1.4 3.482 0 3.997 3.03 3.997 4.51v5.319h-1.985zM122 13.48c-1.9.354-3.856.168-4.596-1.161-.44-.79-.374-1.56-.374-2.606V5.396h-1.938V3.907h1.938V1.248h1.965v2.66H122v1.488h-3.005v4.228c0 .771-.037 1.33.206 1.72.45.726 1.479.753 2.799.567z"/></svg>
